X: 21
T: Alister
%R: reel
B: Kitty Bridges "Collection of Country Dances 1745" p.21
F: http://www.vwml.org/browse/browse-collections-dance-tune-books/browse-bridges1745
Z: 2015 John Chambers <jc:trillian.mit.edu>
N: The tune has no time signature.
N: Repeats adjusted to match "The first Strain twice the last once."
M: none
L: 1/8
K: Gm
% - - - - - - - - - - - - - - - - - - - - - - - - - - - - -
|:\
G2g2 fdcd | BFFD F2F2 |\
G2g2 fdcd | BGA^F G2G2 :|\
|:\
F>AB>c d>Bc>d |
BGA^F G2G2 |\
F>AB>c d>Bc>d | BFFD F2F2 |\
d=e/^f/ gd =fccd | BGA^F G2G2 |]
% - - - - - - - - - - Dance description - - - - - - - - - -
%%center Alister
%%begintext align
%%   Cast down two Coup.l and up again. Cross
%% over two Coup.l lead up the middle and
%% Cast off. Foot it corners and turn, then
%% lead out Sides.
%%endtext
